X: 1
T:Merrily Kiss the Quaker's Wife
M:6/8
L:1/8
C:Trad
R:Slide
K:G
GAB D2B|c2A BGE|GAB DEG|A3 AGE|GAB D2B|c2A BGE|GAB D2E|G3 G3:|
A|BGG AGG|BGG AGE|GAB DEG|A3 AGA|BGG AGG|BGG AGE|GAB D2E|G3 G3:|
ggg aga|bge dBd|ggg gab|a3 agf|ggg fff|ege dBA|GAB D2E|G3 G3:|
